src/images/icons/star-filled.svg

<svg width="16" height="15" viewBox="0 0 16 15" fill="none" xmlns="http://www.w3.org/2000/svg">
<path d="M14.673 7.17173C15.7437 6.36184 15.1709 4.65517 13.8284 4.65517H11.3992C10.7853 4.65517 10.243 4.25521 10.0617 3.66868L9.33754 1.32637C8.9309 0.0110567 7.0691 0.0110564 6.66246 1.32637L5.93832 3.66868C5.75699 4.25521 5.21469 4.65517 4.60078 4.65517H2.12961C0.791419 4.65517 0.215919 6.35274 1.27822 7.16654L3.39469 8.78792C3.85885 9.1435 4.05314 9.75008 3.88196 10.3092L3.11296 12.8207C2.71416 14.1232 4.22167 15.1704 5.30301 14.342L7.14861 12.9281C7.65097 12.5432 8.34903 12.5432 8.85139 12.9281L10.6807 14.3295C11.7636 15.159 13.2725 14.1079 12.8696 12.8046L12.09 10.2827C11.9159 9.71975 12.113 9.10809 12.5829 8.75263L14.673 7.17173Z" fill="#FFAD33"/>
</svg>

<svg width="16" height="15" fill="none" xmlns="http://www.w3.org/2000/svg"><path d="M14.673 7.172c1.07-.81.498-2.517-.845-2.517H11.4a1.4 1.4 0 0 1-1.337-.986l-.724-2.343C8.93.011 7.069.011 6.662 1.326L5.938 3.67a1.4 1.4 0 0 1-1.337.986H2.13c-1.339 0-1.914 1.698-.852 2.512l2.117 1.62a1.4 1.4 0 0 1 .487 1.522l-.769 2.512c-.399 1.302 1.109 2.35 2.19 1.521l1.846-1.414a1.4 1.4 0 0 1 1.702 0l1.83 1.401c1.083.83 2.592-.221 2.189-1.524l-.78-2.522a1.4 1.4 0 0 1 .493-1.53l2.09-1.581Z" fill="#FFAD33"/></svg>
